src/lib/packages/icons/src/assets/line/phone-office.svg

<svg xmlns="http://www.w3.org/2000/svg" width="24" height="24" fill="none"><path fill="currentColor" d="M19 3.25h-7.27c-.097-1.253-.909-2-2.23-2h-3c-1.34 0-2.157.767-2.235 2.053C2.317 3.556 1.25 4.841 1.25 7v11c0 2.418 1.332 3.75 3.75 3.75a.75.75 0 0 0 0-1.5c-1.577 0-2.25-.673-2.25-2.25V7c0-1.295.464-1.973 1.5-2.176V16.5c0 1.409.841 2.25 2.25 2.25h.75V19c0 1.241 1.01 2.25 2.25 2.25h1a.75.75 0 0 1 .75.75.75.75 0 0 0 1.5 0c0-1.241-1.01-2.25-2.25-2.25h-1a.75.75 0 0 1-.75-.75v-.25h.75c1.409 0 2.25-.841 2.25-2.25V4.75H19c1.577 0 2.25.673 2.25 2.25v11c0 1.577-.673 2.25-2.25 2.25h-4a.75.75 0 0 0 0 1.5h4c2.418 0 3.75-1.332 3.75-3.75V7c0-2.418-1.332-3.75-3.75-3.75ZM10.25 16.5c0 .589-.161.75-.75.75h-3c-.589 0-.75-.161-.75-.75v-13c0-.589.161-.75.75-.75h3c.589 0 .75.161.75.75v13ZM18 11.75c1.24 0 2.25-1.009 2.25-2.25S19.24 7.25 18 7.25h-3a2.253 2.253 0 0 0-2.25 2.25c0 1.241 1.01 2.25 2.25 2.25h3ZM14.25 9.5a.75.75 0 0 1 .75-.75h3a.75.75 0 0 1 0 1.5h-3a.75.75 0 0 1-.75-.75ZM19 14a1 1 0 1 1-2 0 1 1 0 0 1 2 0Zm-4-1a1 1 0 1 1 0 2 1 1 0 0 1 0-2Zm4 4a1 1 0 1 1-2 0 1 1 0 0 1 2 0Zm-5 0a1 1 0 1 1 2 0 1 1 0 0 1-2 0Z"/></svg>

<svg width="24" height="24" viewBox="0 0 24 24" fill="none" xmlns="http://www.w3.org/2000/svg">
<path d="M19 3.25H11.73C11.633 1.997 10.821 1.25 9.5 1.25H6.5C5.16 1.25 4.34289 2.01698 4.26489 3.30298C2.31689 3.55598 1.25 4.841 1.25 7V18C1.25 20.418 2.582 21.75 5 21.75C5.414 21.75 5.75 21.414 5.75 21C5.75 20.586 5.414 20.25 5 20.25C3.423 20.25 2.75 19.577 2.75 18V7C2.75 5.705 3.214 5.02697 4.25 4.82397V16.5C4.25 17.909 5.091 18.75 6.5 18.75H7.25V19C7.25 20.241 8.26 21.25 9.5 21.25H10.5C10.913 21.25 11.25 21.586 11.25 22C11.25 22.414 11.586 22.75 12 22.75C12.414 22.75 12.75 22.414 12.75 22C12.75 20.759 11.74 19.75 10.5 19.75H9.5C9.087 19.75 8.75 19.414 8.75 19V18.75H9.5C10.909 18.75 11.75 17.909 11.75 16.5V4.75H19C20.577 4.75 21.25 5.423 21.25 7V18C21.25 19.577 20.577 20.25 19 20.25H15C14.586 20.25 14.25 20.586 14.25 21C14.25 21.414 14.586 21.75 15 21.75H19C21.418 21.75 22.75 20.418 22.75 18V7C22.75 4.582 21.418 3.25 19 3.25ZM10.25 16.5C10.25 17.089 10.089 17.25 9.5 17.25H6.5C5.911 17.25 5.75 17.089 5.75 16.5V3.5C5.75 2.911 5.911 2.75 6.5 2.75H9.5C10.089 2.75 10.25 2.911 10.25 3.5V16.5ZM18 11.75C19.24 11.75 20.25 10.741 20.25 9.5C20.25 8.259 19.24 7.25 18 7.25H15C13.76 7.25 12.75 8.259 12.75 9.5C12.75 10.741 13.76 11.75 15 11.75H18ZM14.25 9.5C14.25 9.086 14.587 8.75 15 8.75H18C18.413 8.75 18.75 9.086 18.75 9.5C18.75 9.914 18.413 10.25 18 10.25H15C14.587 10.25 14.25 9.914 14.25 9.5ZM19 14C19 14.552 18.552 15 18 15C17.448 15 17 14.552 17 14C17 13.448 17.448 13 18 13C18.552 13 19 13.448 19 14ZM15 13C15.552 13 16 13.448 16 14C16 14.552 15.552 15 15 15C14.448 15 14 14.552 14 14C14 13.448 14.448 13 15 13ZM19 17C19 17.552 18.552 18 18 18C17.448 18 17 17.552 17 17C17 16.448 17.448 16 18 16C18.552 16 19 16.448 19 17ZM14 17C14 16.448 14.448 16 15 16C15.552 16 16 16.448 16 17C16 17.552 15.552 18 15 18C14.448 18 14 17.552 14 17Z" fill="currentColor"/>
</svg>
